X:1
T:Sechs Lieder von Novalis, Op.4
T:Geistliches Lied (vierstimmig)
T:3b. Geistliches Lied
T:Louise Reichardt
T:Sechs Lieder von Novalis, Op.4
T:Novalis (Georg Friedrich Freiherr von Hardenberg) 
T:Auch vierstimmig zu singen
T:OpenScore (CC0)
C:Louise Reichardt
Z:Novalis (Georg Friedrich Freiherr von Hardenberg)
Z:OpenScore (CC0)
%%score [ 1 2 3 4 ]
L:1/8
Q:1/4=120
M:4/4
K:Db
V:1 treble nm="Soprano 1" snm="S1."
V:2 treble nm="Soprano 2" snm="S2."
V:3 treble-8 nm="Tenore" snm="T."
V:4 bass nm="Basso" snm="B."
V:1
!mf! A2 A2 f2 e2 | d4 !breath!A4 |!p! A2 d2 c2 =G2 | !breath!A8 |!mp! =A2 A2 B2 d2 | f2 e2 (e3 d) | %6
w: 1. Wenn  ich ihn nur|ha- be,|wenn er mein nur|ist,|wenn mein Herz bis|hin zum Gra- *|
 c4 B2 c2 | d2 B2 A2"^[ ]" =G2 |"^[  ]" (=G4 A4) | A2 A2 B2 F2 |{A} _G4 G4 | %11
w: be sei- ne|Treu- e nie ver-|gisst, *|Weiss ich nichts von|Lei- de,|
"^cresc." F3 D[Q:1/4=117] G3 E |[Q:1/4=114] A2 D2[Q:1/4=111] B2 D2 |[Q:1/4=108] (!turn!D4{F} E4) | %14
w: füh- le nichts als|An- dacht, Lieb und|Freu- *|
 D8 |] %15
w: de.|
V:2
 A2 A2 A2 G2 | F4 F4 | F2 B2 A2 E2 | E8 | _G2 G2 F2 F2 | =G2 A2 G4 | A4 B2 =A2 | B2 F2 E2 E2 | %8
w: 1. Wenn ich ihn nur|ha- be,|wenn er mein nur|ist,|wenn mein Herz bis|hin zum Gra-|be sei- ne|Treu- e nie ver-|
w: ||||||||
 !breath!E8 | z8 | z8 | D3 D C3 C | D2 F2 D2 B,2 | (A,4 C4) | D8 |] %15
w: gisst,|||  * * *||||
w: |||füh- le nichts als|An- dacht Lieb und|Freu- *|de.|
V:3
 A2 A2 d2 c2 | d4 d4 | d2 f2 e2 d2 | c8 | e2 e2 d2 d2 | d2 c2 ((B2 E2)) | F4 f2 f2 | f2 d2 c2 B2 | %8
w: 1. Wenn ich ihn nur|ha- be,|wenn er mein nur|ist,|wenn mein Herz bis|hin zum Gra- *|be sei- ne|Treu- e nie ver-|
 (B4 c4) | c2 c2 =d2 d2 | e4 e4 | A3 F E3 A | A2 A2 G2 _F2 | (=F4 _G4) | F8 |] %15
w: gisst, *|weiss ich nichts von|Lei- de|füh- le nichts als|An- dacht Lieb und|Freu- *|de.|
V:4
 A,2 A,2 D,2 A,,2 | D,4 D,4 | D,2 B,,2 E,2 E,2 | A,,8 | z8 | z8 | z4 D,2 C,2 | B,,2 D,2 E,2 E,2 | %8
w: 1. Wenn ich ihn nur|ha- be,|wenn er mein nur|ist,|||sei- ne|Treu- e nie ver-|
 A,,8 | A,2 A,2 A,2 A,2 | (A,2 A,,2) (C,2 A,,2) | D,2 A,,2 E,2 A,,2 | F,2 D,2 G,,2 =G,,2 | A,,8 | %14
w: gisst,|weiss ich nichts von|Lei- * de *|füh- le nichts als|An- dacht Lieb und|Freu-|
 D,8 |] %15
w: de.|

